!!!OTL: No_33_Come_Home,_Baby_Is_Crying.krn
!!!REG: Northern California
!!!SOCIAL_FUNCTION: songs connected with gathering acorns
!!!LANG: Non-Tone
!!!LING_GROUP: Penutian
**kern
*staff1
=1-
*clefF4
*k[f#]
*M2/4
8.e\L
16d\Jk
8e\L
16B\L
16B\JJ
=2
8.d\L
16e\Jk
16B\LK
8.B\J
=3
16B\LL
16A\
16G\
16G\JJ
16E\LL
16E\JJ
8r
=4
4A\
16G\LL
16E\JJ
8r
=5
8.d\L
16e\Jk
16e\LK
8.B\J
=6
16B\LL
16A\J
8G\J
16E\LL
16E\JJ
8r
=7
8.A\L
16G\Jk
16G\LL
16E\JJ
8r
=8
8.d\L
16e\Jk
8d\L
16B\L
16B\JJ
=9
8.d\L
16e\Jk
16e\LK
8.B\J
=10
16B\LL
16A\J
8G\J
16E\LL
16E\JJ
8r
=11
4A\
16G\LL
16E\JJ
8r
=12
8.d\L
16e\Jk
16e\LK
8.B\J
=13
16B\LL
16A\J
8G\J
16G\LL
16E\JJ
8r
=14
4A\
16G\LL
16E\JJ
8r
=15
8.e\L
16e\Jk
8e\L
16B\L
16B\JJ
=16
8.d\L
16e\Jk
16e\LK
8.B\J
=17
16B\LL
16A\J
8G\J
16G\LL
16E\JJ
8r
=18
4A\
16G\LL
16E\JJ
8r
==
*-
